**harmony	**harte	**kern	**silbe	**rhyme	**phrase
*M4/4	*M4/4	*ICvox	*	*	*
*	*	*VRlead	*	*	*
*	*	*Hstimme	*	*	*
*G:	*G:	*G:	*	*	*
*	*	*M4/4	*	*	*
*	*	*clefG2	*	*	*
1r;	1r	r;	.	.	.
=1	=1	=1	=1	=1	=1
*>Letter>B	*>Letter>B	*>Letter>B	*>Letter>B	*>Letter>B	*>Letter>B
*>Label>Verse	*>Label>Verse	*>Label>Verse	*>Label>Verse	*>Label>Verse	*>Label>Verse
1GM	G:maj	4r	.	.	newline
.	.	8d	There's	.	.
.	.	8d	a	.	.
.	.	8d	wren	.	.
.	.	8c	in	.	.
.	.	8B	a	.	.
.	.	8c	wi-	.	.
=2	=2	=2	=2	=2	=2
1GM	G:maj	8B	-llow	.	.
.	.	4.d	wood	A	.
.	.	2r	.	.	.
=3	=3	=3	=3	=3	=3
1GM	G:maj	4r	.	.	.
.	.	4d	Flies	.	.
.	.	8d	so	.	.
.	.	4e	high	.	.
.	.	8d	and	.	.
=4	=4	=4	=4	=4	=4
1GM	G:maj	4e	sings	B	.
.	.	8d	so	.	.
.	.	16B	good	A	.
.	.	16A	_	.	.
.	.	8G	_	.	.
.	.	8B	And	.	.
.	.	8B	he	.	.
.	.	8B	brings	B	.
=5	=5	=5	=5	=5	=5
1Am	A:min	4A	_	.	newline
.	.	8A	to	.	.
.	.	[8A	you	.	.
.	.	4A]	_	.	.
.	.	4r	.	.	.
=6	=6	=6	=6	=6	=6
1DM	D:maj/3	2r	.	.	.
.	.	8r	.	.	.
.	.	8B	what	.	.
.	.	8d	he	.	.
.	.	[8e	sings	B	.
=7	=7	=7	=7	=7	=7
1Am	A:min	8e]	_	.	.
.	.	[4.d	_	.	.
.	.	4d]	_	.	.
.	.	8d	to	.	.
.	.	[8B	you	.	.
=8	=8	=8	=8	=8	=8
1DM	D:maj/3	4.B]	_	.	.
.	.	4A	_	.	.
.	.	8G	_	.	.
.	.	4r	.	.	.
=9	=9	=9	=9	=9	=9
1GM	G:maj	4r	.	.	newline
.	.	8d	Like	.	.
.	.	8d	my	.	.
.	.	8d	bro-	.	.
.	.	8c	-ther	.	.
.	.	8B	the	.	.
.	.	8c	wren	.	.
=10	=10	=10	=10	=10	=10
1GM	G:maj	8B	and	.	.
.	.	4.d	I	C	.
.	.	2r	.	.	.
=11	=11	=11	=11	=11	=11
1GM	G:maj	4r	.	.	.
.	.	8d	Well,	.	.
.	.	8d	he	.	.
.	.	8d	told	.	.
.	.	8d	me	.	.
.	.	4r	.	.	.
=12	=12	=12	=12	=12	=12
1GM	G:maj	8e	if	.	.
.	.	4g	I	.	.
.	.	[8b	try,	C	.
.	.	8b]	_	.	.
.	.	8a	I	.	.
.	.	8g	could	.	.
.	.	[8e	fly	C	.
=13	=13	=13	=13	=13	=13
1Am	A:min	8e]	_	.	newline
.	.	[4.d	_	.	.
.	.	4d]	_	.	.
.	.	8d	for	.	.
.	.	[8A	you	.	.
=14	=14	=14	=14	=14	=14
1DM	D:maj/3	8A]	_	.	.
.	.	4r	.	.	.
.	.	8G	And	.	.
.	.	8B	I	.	.
.	.	8d	wan-	.	.
.	.	8B	-na	.	.
.	.	[8e	try	C	.
=15	=15	=15	=15	=15	=15
1Am	A:min	2e]	_	.	.
.	.	8r	.	.	.
.	.	4d	for	.	.
.	.	[8B	you	.	.
=16	=16	=16	=16	=16	=16
1DM	D:maj/3	4.B]	_	.	.
.	.	16c	_	.	.
.	.	16B	_	.	.
.	.	16A	_	.	.
.	.	8.G	_	.	.
.	.	4G	'cause	.	.
=17	=17	=17	=17	=17	=17
*>Letter>C	*>Letter>C	*>Letter>C	*>Letter>C	*>Letter>C	*>Letter>C
*>Label>Chorus	*>Label>Chorus	*>Label>Chorus	*>Label>Chorus	*>Label>Chorus	*>Label>Chorus
1GM	G:maj	4r	.	.	newline
.	.	[2.d	I	.	.
=18	=18	=18	=18	=18	=18
1GM	G:maj	4d]	_	.	.
.	.	8c	wan-	.	.
.	.	8B	-na	.	.
.	.	8c	sing	.	.
.	.	4d	you	.	.
.	.	8B	a	.	.
=19	=19	=19	=19	=19	=19
1Am	A:min	4.B	love	.	.
.	.	16c	_	.	.
.	.	16B	_	.	.
.	.	8A	_	.	.
.	.	4.A	song	D	.
=20	=20	=20	=20	=20	=20
1DM	D:maj	2r	.	.	.
.	.	8r	.	.	.
.	.	8D	I	.	.
.	.	8A	wan-	.	.
.	.	8B	-na	.	.
=21	=21	=21	=21	=21	=21
1Am	A:min	8c	rock	.	newline
.	.	8B	you	.	.
.	.	8c	in	.	.
.	.	8B	my	.	.
.	.	[2d	arms	.	.
=22	=22	=22	=22	=22	=22
1DM	D:maj	4.d]	_	.	.
.	.	[8B	all	.	.
.	.	8B]	_	.	.
.	.	8A	_	.	.
.	.	4A	night	.	.
=23	=23	=23	=23	=23	=23
1GM	G:maj	2B	long	D	.
.	.	2r	.	.	.
=24	=24	=24	=24	=24	=24
1GM	G:maj	1r	.	.	.
=25	=25	=25	=25	=25	=25
1GM	G:maj	4r	.	.	newline
.	.	[4d	I	.	.
.	.	4.d]	_	.	.
.	.	[8c	_	.	.
=26	=26	=26	=26	=26	=26
1GM	G:maj/3	8c]	_	.	.
.	.	8c	wan-	.	.
.	.	8B	-na	.	.
.	.	4c	get	.	.
.	.	4d	to	.	.
.	.	8B	_	.	.
=27	=27	=27	=27	=27	=27
1Am	A:min	4.B	know	.	.
.	.	16c	_	.	.
.	.	16B	_	.	.
.	.	4A	_	.	.
.	.	4A	you	.	.
=28	=28	=28	=28	=28	=28
1DM	D:maj	2r	.	.	.
.	.	8r	.	.	.
.	.	8D	I	.	.
.	.	8A	wan-	.	.
.	.	8B	-na	.	.
=29	=29	=29	=29	=29	=29
1Am	A:min	8c	show	.	newline
.	.	4.d	you	.	.
.	.	4r	.	.	.
.	.	8d	the	.	.
.	.	[8e	peace-	.	.
=30	=30	=30	=30	=30	=30
1DM	D:maj	8e]	_	.	.
.	.	4d	-ful	.	.
.	.	8B	fee-	.	.
.	.	8A	-lin'	.	.
.	.	8G	of	.	.
.	.	4B	my	.	.
=31	=31	=31	=31	=31	=31
1GM	G:maj	4.A	home	.	.
.	.	[8G	_	.	.
.	.	4G]	_	.	.
.	.	4r	.	.	.
=32	=32	=32	=32	=32	=32
1GM	G:maj	1r	.	.	.
=33	=33	=33	=33	=33	=33
*>Letter>B	*>Letter>B	*>Letter>B	*>Letter>B	*>Letter>B	*>Letter>B
*>Label>Verse	*>Label>Verse	*>Label>Verse	*>Label>Verse	*>Label>Verse	*>Label>Verse
1GM	G:maj	4r	.	.	newline
.	.	8d	Sum-	.	.
.	.	8d	-mer	.	.
.	.	8d	thun-	.	.
.	.	8c	-der	.	.
.	.	8B	on	.	.
.	.	[8c	moon-	.	.
=34	=34	=34	=34	=34	=34
1GM	G:maj	8c]	_	.	.
.	.	4B	-bright	.	.
.	.	4.d	days	E	.
.	.	4r	.	.	.
=35	=35	=35	=35	=35	=35
1GM	G:maj	4r	.	.	.
.	.	8d	Nort-	.	.
.	.	4d	-hern	.	.
.	.	4e	Lights	.	.
.	.	[8g	and	.	.
=36	=36	=36	=36	=36	=36
1GM	G:maj	8g]	_	.	.
.	.	4e	skies	.	.
.	.	8d	a-	.	.
.	.	16B	-blaze	E	.
.	.	16A	_	.	.
.	.	8G	_	.	.
.	.	8B	And	.	.
.	.	[8B	I	.	.
=37	=37	=37	=37	=37	=37
1Am	A:min	8B]	_	.	newline
.	.	8B	bring	B	.
.	.	8A	_	.	.
.	.	8A	to	.	.
.	.	4A	you	.	.
.	.	4r	.	.	.
=38	=38	=38	=38	=38	=38
1DM	D:maj	2r	.	.	.
.	.	8B	lo-	.	.
.	.	8d	-ver,	.	.
.	.	8d	when	.	.
.	.	[8B	I	.	.
=39	=39	=39	=39	=39	=39
1Am	A:min	8B]	_	.	.
.	.	4e	sing	B	.
.	.	[8d	_	.	.
.	.	4d]	_	.	.
.	.	8d	to	.	.
.	.	[8A	you	.	.
=40	=40	=40	=40	=40	=40
1DM	D:maj	4A]	_	.	.
.	.	2r	.	.	.
.	.	4r	.	.	.
=41	=41	=41	=41	=41	=41
1GM	G:maj	4r	.	.	newline
.	.	8d	Sil-	.	.
.	.	8d	-ver	.	.
.	.	8d	wings	B	.
.	.	8c	in	.	.
.	.	8B	a	.	.
.	.	[8c	fie-	.	.
=42	=42	=42	=42	=42	=42
1GM	G:maj	8c]	_	.	.
.	.	4B	-ry	.	.
.	.	[4.d	sky	.	.
.	.	4d]	_	.	.
=43	=43	=43	=43	=43	=43
1GM	G:maj	4r	.	.	.
.	.	8d	Show	.	.
.	.	8d	the	.	.
.	.	4d	trail	.	.
.	.	8e	of	.	.
.	.	[8g	my	.	.
=44	=44	=44	=44	=44	=44
1GM	G:maj	8g]	_	.	.
.	.	4b	love	.	.
.	.	8a	and	.	.
.	.	4g	I	.	.
.	.	8g	wan-	.	.
.	.	[8g	-na	.	.
=45	=45	=45	=45	=45	=45
1Am	A:min	8g]	_	.	newline
.	.	4e	sing	B	.
.	.	[8d	_	.	.
.	.	4d]	_	.	.
.	.	8d	to	.	.
.	.	[8A	you	.	.
=46	=46	=46	=46	=46	=46
1DM	D:maj	4A]	_	.	.
.	.	4r	.	.	.
.	.	8B	love	.	.
.	.	8d	is	.	.
.	.	8d	what	.	.
.	.	8B	I	.	.
=47	=47	=47	=47	=47	=47
1Am	A:min	8r	.	.	.
.	.	4e	bring	B	.
.	.	[8d	_	.	.
.	.	4d]	_	.	.
.	.	8d	to	.	.
.	.	[8A	you	.	.
=48	=48	=48	=48	=48	=48
1DM	D:maj	4A]	_	.	.
.	.	8r	.	.	.
.	.	8B	and	.	.
.	.	8d	I	.	.
.	.	8d	wan-	.	.
.	.	8B	-na	.	.
.	.	[8e	sing	.	.
=49	=49	=49	=49	=49	=49
1CM	C:maj	4.e]	_	.	.
.	.	8d	to	.	.
.	.	8e	_	.	.
.	.	8g	_	.	.
.	.	8e	_	.	.
.	.	8d	_	.	.
=50	=50	=50	=50	=50	=50
1DM	D:maj	2d	you	.	.
.	.	4r	.	.	.
.	.	8d	Oh	.	.
.	.	8e	_	.	.
=51	=51	=51	=51	=51	=51
*>Letter>C	*>Letter>C	*>Letter>C	*>Letter>C	*>Letter>C	*>Letter>C
*>Label>Chorus	*>Label>Chorus	*>Label>Chorus	*>Label>Chorus	*>Label>Chorus	*>Label>Chorus
1GM	G:maj	1d	I	.	newline
=52	=52	=52	=52	=52	=52
1GM	G:maj	4r	.	.	.
.	.	8c	wan-	.	.
.	.	8B	-na	.	.
.	.	8c	sing	.	.
.	.	4d	you	.	.
.	.	8B	a	.	.
=53	=53	=53	=53	=53	=53
1Am	A:min	4.B	love	.	.
.	.	16c	_	.	.
.	.	16B	_	.	.
.	.	4A	_	.	.
.	.	[4A	song	D	.
=54	=54	=54	=54	=54	=54
1DM	D:maj	4A]	_	.	.
.	.	4r	.	.	.
.	.	8r	.	.	.
.	.	8D	I	.	.
.	.	8A	wan-	.	.
.	.	8B	-na	.	.
=55	=55	=55	=55	=55	=55
1Am	A:min	8c	rock	.	newline
.	.	8B	you	.	.
.	.	8c	in	.	.
.	.	8B	my	.	.
.	.	[2d	arms	.	.
=56	=56	=56	=56	=56	=56
1DM	D:maj	4.d]	_	.	.
.	.	[8B	all	.	.
.	.	8B]	_	.	.
.	.	8A	_	.	.
.	.	4A	night	.	.
=57	=57	=57	=57	=57	=57
1GM	G:maj	2B	long	D	.
.	.	2r	.	.	.
=58	=58	=58	=58	=58	=58
1GM	G:maj	1r	.	.	.
=59	=59	=59	=59	=59	=59
1GM	G:maj	4r	.	.	newline
.	.	[4d	I	.	.
.	.	4.d]	_	.	.
.	.	[8c	_	.	.
=60	=60	=60	=60	=60	=60
1GM	G:maj/3	8c]	_	.	.
.	.	8c	wan-	.	.
.	.	8B	-na	.	.
.	.	4c	get	.	.
.	.	4d	to	.	.
.	.	8B	_	.	.
=61	=61	=61	=61	=61	=61
1Am	A:min	4.B	know	.	.
.	.	16c	_	.	.
.	.	16B	_	.	.
.	.	4A	_	.	.
.	.	4A	you	.	.
=62	=62	=62	=62	=62	=62
1DM	D:maj	2r	.	.	.
.	.	8r	.	.	.
.	.	8D	I	.	.
.	.	8A	wan-	.	.
.	.	8B	-na	.	.
=63	=63	=63	=63	=63	=63
1Am	A:min	8c	show	.	newline
.	.	4.d	you	.	.
.	.	4r	.	.	.
.	.	8r	.	.	.
.	.	8d	the	.	.
=64	=64	=64	=64	=64	=64
1DM	D:maj	4e	peace-	.	.
.	.	8d	-ful	.	.
.	.	8B	fee-	.	.
.	.	8A	-lin'	.	.
.	.	8G	of	.	.
.	.	4B	my	.	.
=65	=65	=65	=65	=65	=65
1GM	G:maj	4.A	home	.	.
.	.	[8G	_	.	.
.	.	4G]	_	.	.
.	.	4r	.	.	.
=66	=66	=66	=66	=66	=66
1GM	G:maj	1r	.	.	.
=67	=67	=67	=67	=67	=67
*>Label>>Interlude	*>Label>>Interlude	*>Label>>Interlude	*>Label>>Interlude	*>Label>>Interlude	*>Label>>Interlude
1Em	E:min	1r	.	.	newline
=68	=68	=68	=68	=68	=68
1Em	E:min	1r	.	.	.
=69	=69	=69	=69	=69	=69
1CM	C:maj	1r	.	.	.
=70	=70	=70	=70	=70	=70
1DM	D:maj	1r	.	.	.
=71	=71	=71	=71	=71	=71
*A:	*A:	*A:	*	*	*
1Bm	B:min	1r	.	.	.
=72	=72	=72	=72	=72	=72
1EM	E:maj	1r	.	.	.
=73	=73	=73	=73	=73	=73
*>Letter>C	*>Letter>C	*>Letter>C	*>Letter>C	*>Letter>C	*>Letter>C
*>Label>Chorus	*>Label>Chorus	*>Label>Chorus	*>Label>Chorus	*>Label>Chorus	*>Label>Chorus
1AM	A:maj	4r	.	.	newline
.	.	[2.e	I	.	.
=74	=74	=74	=74	=74	=74
1AM	A:maj	4e]	_	.	.
.	.	8d	wan-	.	.
.	.	8c#	-na	.	.
.	.	8d	sing	.	.
.	.	4e	you	.	.
.	.	8c#	a	.	.
=75	=75	=75	=75	=75	=75
1Bm	B:min	4.c#	love	.	.
.	.	16d	_	.	.
.	.	16c#	_	.	.
.	.	4B	_	.	.
.	.	[4B	song	D	.
=76	=76	=76	=76	=76	=76
1EM	E:maj	4B]	_	.	.
.	.	4r	.	.	.
.	.	8r	.	.	.
.	.	8E	I	.	.
.	.	8B	wan-	.	.
.	.	8c#	-na	.	.
=77	=77	=77	=77	=77	=77
1Bm	B:min	8d	rock	.	newline
.	.	8c#	you	.	.
.	.	8d	in	.	.
.	.	8c#	my	.	.
.	.	2e	arms	.	.
=78	=78	=78	=78	=78	=78
1EM	E:maj	4.r	.	.	.
.	.	[8c#	all	.	.
.	.	8c#]	_	.	.
.	.	8B	_	.	.
.	.	4B	night	.	.
=79	=79	=79	=79	=79	=79
1AM	A:maj	2c#	long	D	.
.	.	2r	.	.	.
=80	=80	=80	=80	=80	=80
1AM	A:maj	1r	.	.	.
=81	=81	=81	=81	=81	=81
1AM	A:maj	4r	.	.	newline
.	.	[4e	I	.	.
.	.	4.e]	_	.	.
.	.	[8d	_	.	.
=82	=82	=82	=82	=82	=82
1GM	G:maj/3	8d]	_	.	.
.	.	8d	wan-	.	.
.	.	8c#	-na	.	.
.	.	4d	get	.	.
.	.	4e	to	.	.
.	.	8c#	_	.	.
=83	=83	=83	=83	=83	=83
1Bm	B:min	4.c#	know	.	.
.	.	16d	_	.	.
.	.	16c#	_	.	.
.	.	4B	_	.	.
.	.	4B	you	.	.
=84	=84	=84	=84	=84	=84
1EM	E:maj	2r	.	.	.
.	.	8r	.	.	.
.	.	8E	I	.	.
.	.	8B	wan-	.	.
.	.	8c#	-na	.	.
=85	=85	=85	=85	=85	=85
1Bm	B:min	8d	show	.	newline
.	.	4.e	you	.	.
.	.	4r	.	.	.
.	.	8r	.	.	.
.	.	[8f#	peace	.	.
=86	=86	=86	=86	=86	=86
1EM	E:maj	8f#]	_	.	.
.	.	4e	ful	.	.
.	.	8c#	fee-	.	.
.	.	8B	-lin'	.	.
.	.	8A	of	.	.
.	.	4c#	my	.	.
=87	=87	=87	=87	=87	=87
1AM	A:maj	2B	home	.	.
.	.	4A	_	.	.
.	.	4r	.	.	.
=88	=88	=88	=88	=88	=88
1AM	A:maj	2r	.	.	.
.	.	8r	.	.	.
.	.	8E	I	.	.
.	.	8B	wan-	.	.
.	.	8c#	-na	.	.
=89	=89	=89	=89	=89	=89
1Bm	B:min	8d	show	.	newline
.	.	4.e	you	.	.
.	.	4r	.	.	.
.	.	8e	the	.	.
.	.	[8f#	peace-	.	.
=90	=90	=90	=90	=90	=90
1EM	E:maj	8f#]	_	.	.
.	.	4e	-ful	.	.
.	.	8c#	fee-	.	.
.	.	8B	-lin'	.	.
.	.	8A	of	.	.
.	.	4c#	my	.	.
=91	=91	=91	=91	=91	=91
1DM	D:maj	2B	home	.	.
.	.	8c#	_	.	.
.	.	8B	_	.	.
.	.	8A	_	.	.
.	.	8A	_	.	.
=92	=92	=92	=92	=92	=92
1DM	D:maj	2A	_	.	.
.	.	8F#	_	.	.
.	.	8E	_	.	.
.	.	4E	_	.	.
=93	=93	=93	=93	=93	=93
1AM	A:maj	1A	_	.	.
1r;	1r	r;	.	.	.
*-	*-	*-	*-	*-	*-
!!!BillboardChartDate: 1974/01/05
!!!BillboardPeak: 12
!!!BillboardWeeksOnChart: 17
!!!COC: Anne Murray
!!!EMD: McGill originally transcribed the live (1997?) version, which ended at measure 67. I've fleshed it out to the end and removed the timestamps. -Nat
!!!ENC: Nathaniel Condit-Schultz
!!!EST: Awating manual error checking and editing.
!!!OTL: Love Song
!!!RDF**chordsym: original McGill chord annotation + (implied pitch class set, with bass pitch in first position)
!!!RDF**harmony: **recip + pitch class of root + harmonic quality
!!!RDF**leadinstrument: original McGill primary instrumentation annotation
!!!RDF**phrase: newline = linebreak in original McGill transcription
!!!RDF**timestamp: McGill audio timestamp in seconds
!!!RDT: 2017/01/12/
!!!SampleActualRank: 60
!!!SampleID#: 0917
!!!SampleTargetRank: 62
!!!MBID: d1822803-72a4-4fc3-b287-8f76606bcb4e
